build/assets/images/roller_icon.svg

<svg width="40" height="40" viewBox="0 0 40 40" fill="none" xmlns="http://www.w3.org/2000/svg">
<path fill-rule="evenodd" clip-rule="evenodd" d="M31.4774 19.9999C31.4774 26.3438 26.3443 31.4769 20.0004 31.4769C13.6566 31.4769 8.52344 26.3438 8.52344 19.9999C8.52344 13.6561 13.6566 8.52295 20.0004 8.52295C26.3443 8.52295 31.4774 13.6561 31.4774 19.9999ZM20.0004 10.3147C25.3757 10.3147 29.7341 14.6246 29.7341 19.9999C29.7341 25.3752 25.3757 29.7336 20.0004 29.7336C14.6251 29.7336 10.3152 25.3752 10.3152 19.9999C10.3152 14.6246 14.6251 10.3147 20.0004 10.3147Z" fill="#FE9013"/>
<path fill-rule="evenodd" clip-rule="evenodd" d="M20 0C31.0412 0 40 8.95884 40 20C40 31.0412 31.0412 40 20 40C8.95884 40 0 31.0412 0 20C0 8.95884 8.95884 0 20 0ZM20 1.79177C30.0726 1.79177 38.2567 9.92736 38.2567 20C38.2567 30.0726 30.0726 38.2567 20 38.2567C9.92736 38.2567 1.79177 30.0726 1.79177 20C1.79177 9.92736 9.92736 1.79177 20 1.79177Z" fill="#FE9013"/>
</svg>

<svg width="40" height="40" fill="none" xmlns="http://www.w3.org/2000/svg"><path fill-rule="evenodd" clip-rule="evenodd" d="M31.477 20A11.47 11.47 0 0 1 20 31.477 11.47 11.47 0 0 1 8.523 20 11.47 11.47 0 0 1 20 8.523 11.47 11.47 0 0 1 31.477 20ZM20 10.315c5.376 0 9.734 4.31 9.734 9.685 0 5.375-4.358 9.734-9.734 9.734-5.375 0-9.685-4.359-9.685-9.734A9.652 9.652 0 0 1 20 10.315Z" fill="#FE9013"/><path fill-rule="evenodd" clip-rule="evenodd" d="M20 0c11.041 0 20 8.959 20 20s-8.959 20-20 20S0 31.041 0 20 8.959 0 20 0Zm0 1.792c10.073 0 18.257 8.135 18.257 18.208 0 10.073-8.184 18.257-18.257 18.257C9.927 38.257 1.792 30.073 1.792 20 1.792 9.927 9.927 1.792 20 1.792Z" fill="#FE9013"/></svg>
